packages/sources/assets/src/assets/flag-ky.svg

<svg width="28" height="20" viewBox="0 0 28 20" fill="none" xmlns="http://www.w3.org/2000/svg">
<rect width="28" height="20" rx="2" fill="white"/>
<mask id="mask0_503_4413" style="mask-type:alpha" maskUnits="userSpaceOnUse" x="0" y="0" width="28" height="20">
<rect width="28" height="20" rx="2" fill="white"/>
</mask>
<g mask="url(#mask0_503_4413)">
<rect width="28" height="20" fill="#07319C"/>
<path fill-rule="evenodd" clip-rule="evenodd" d="M20.6665 6.66667C21.7711 6.66667 22.6665 6.06971 22.6665 5.33333C22.6665 4.59695 21.7711 4 20.6665 4C19.5619 4 18.6665 4.59695 18.6665 5.33333C18.6665 6.06971 19.5619 6.66667 20.6665 6.66667Z" fill="#FAD051"/>
<path fill-rule="evenodd" clip-rule="evenodd" d="M17.3335 9.99998C17.3335 7.99998 17.3335 5.33331 17.3335 5.33331H24.0002C24.0002 5.33331 24.0002 7.99998 24.0002 9.99998C24.0002 13.3333 20.6668 14.6666 20.6668 14.6666C20.6668 14.6666 17.3335 13.3333 17.3335 9.99998Z" fill="url(#paint0_linear_503_4413)"/>
<mask id="mask1_503_4413" style="mask-type:alpha" maskUnits="userSpaceOnUse" x="17" y="5" width="8" height="10">
<path fill-rule="evenodd" clip-rule="evenodd" d="M17.3335 9.99998C17.3335 7.99998 17.3335 5.33331 17.3335 5.33331H24.0002C24.0002 5.33331 24.0002 7.99998 24.0002 9.99998C24.0002 13.3333 20.6668 14.6666 20.6668 14.6666C20.6668 14.6666 17.3335 13.3333 17.3335 9.99998Z" fill="white"/>
</mask>
<g mask="url(#mask1_503_4413)">
<path fill-rule="evenodd" clip-rule="evenodd" d="M17.3335 5.33331H24.0002V6.66665H21.3335H20.0002H17.3335V5.33331Z" fill="#CF142C"/>
<path fill-rule="evenodd" clip-rule="evenodd" d="M24.0002 7.99997H17.3335V9.3333H20.0002H21.3335H24.0002V7.99997ZM17.3335 10.6666H24.0002V12H21.3335H20.0002H17.3335V10.6666ZM17.3335 13.3333H24.0002V14.6666H21.3335H20.0002H17.3335V13.3333Z" fill="#125FBA"/>
</g>
<path d="M0 -0.333333H-0.901086L-0.21693 0.253086L4.33333 4.15331V5.16179L-0.193746 8.39542L-0.333333 8.49513V8.66667V9.33333V9.93475L0.176666 9.616L5.42893 6.33333H6.55984L11.0821 9.56351C11.176 9.6306 11.2886 9.66667 11.404 9.66667C11.9182 9.66667 12.1548 9.02698 11.7644 8.69237L7.66667 5.18002V4.17154L12.0542 1.03762C12.2294 0.912475 12.3333 0.710428 12.3333 0.495127V0V-0.601416L11.8233 -0.282666L6.57107 3H5.44016L0.860413 -0.271244L0.773488 -0.333333H0.666667H0Z" fill="#DB1E36" stroke="white" stroke-width="0.666667"/>
<path fill-rule="evenodd" clip-rule="evenodd" d="M0 3.33333V6H4.66667V9.33333C4.66667 9.70152 4.96514 10 5.33333 10H6.66667C7.03486 10 7.33333 9.70152 7.33333 9.33333V6H12C12.3682 6 12.6667 5.70152 12.6667 5.33333V4C12.6667 3.63181 12.3682 3.33333 12 3.33333H7.33333V0H4.66667V3.33333H0Z" fill="white"/>
<path fill-rule="evenodd" clip-rule="evenodd" d="M0 4H5.33333V3.33333V0H6.66667V3.33333V4H12V5.33333H6.66667V6V9.33333H5.33333V6V5.33333H0V4Z" fill="#DB1E36"/>
</g>
<defs>
<linearGradient id="paint0_linear_503_4413" x1="17.3335" y1="5.33331" x2="17.3335" y2="14.6666" gradientUnits="userSpaceOnUse">
<stop stop-color="white"/>
<stop offset="1" stop-color="#F0F0F0"/>
</linearGradient>
</defs>
</svg>

<svg width="28" height="20" fill="none" xmlns="http://www.w3.org/2000/svg"><rect width="28" height="20" rx="2" fill="#fff"/><mask id="a" style="mask-type:alpha" maskUnits="userSpaceOnUse" x="0" y="0" width="28" height="20"><rect width="28" height="20" rx="2" fill="#fff"/></mask><g mask="url(#a)"><path fill="#07319C" d="M0 0h28v20H0z"/><path fill-rule="evenodd" clip-rule="evenodd" d="M20.666 6.667c1.105 0 2-.597 2-1.334 0-.736-.895-1.333-2-1.333-1.104 0-2 .597-2 1.333 0 .737.896 1.334 2 1.334Z" fill="#FAD051"/><path fill-rule="evenodd" clip-rule="evenodd" d="M17.334 10V5.333H24V10c0 3.333-3.333 4.667-3.333 4.667S17.333 13.333 17.333 10Z" fill="url(#b)"/><mask id="c" style="mask-type:alpha" maskUnits="userSpaceOnUse" x="17" y="5" width="8" height="10"><path fill-rule="evenodd" clip-rule="evenodd" d="M17.334 10V5.333H24V10c0 3.333-3.333 4.667-3.333 4.667S17.333 13.333 17.333 10Z" fill="#fff"/></mask><g mask="url(#c)" fill-rule="evenodd" clip-rule="evenodd"><path d="M17.334 5.333H24v1.334h-6.666V5.333Z" fill="#CF142C"/><path d="M24 8h-6.666v1.333H24V8Zm-6.666 2.667H24V12h-6.666v-1.333Zm0 2.666H24v1.334h-6.666v-1.334Z" fill="#125FBA"/></g><path d="M0-.333h-.901l.684.586 4.55 3.9v1.009L-.194 8.395l-.14.1v1.44l.51-.319L5.43 6.333h1.13l4.523 3.23a.554.554 0 0 0 .682-.87L7.667 5.18V4.172l4.387-3.134a.667.667 0 0 0 .28-.543V-.6l-.51.318L6.57 3H5.44L.86-.271.772-.333H0Z" fill="#DB1E36" stroke="#fff" stroke-width=".667"/><path fill-rule="evenodd" clip-rule="evenodd" d="M0 3.333V6h4.667v3.333c0 .369.298.667.666.667h1.334a.667.667 0 0 0 .666-.667V6H12a.667.667 0 0 0 .667-.667V4A.667.667 0 0 0 12 3.333H7.333V0H4.667v3.333H0Z" fill="#fff"/><path fill-rule="evenodd" clip-rule="evenodd" d="M0 4h5.333V0h1.334v4H12v1.333H6.667v4H5.333v-4H0V4Z" fill="#DB1E36"/></g><defs><linearGradient id="b" x1="17.334" y1="5.333" x2="17.334" y2="14.667" gradientUnits="userSpaceOnUse"><stop stop-color="#fff"/><stop offset="1" stop-color="#F0F0F0"/></linearGradient></defs></svg>
